img/mail.svg

<svg xmlns="http://www.w3.org/2000/svg" viewBox="840 0 1080 1080" enable-background="new 840 0 1080 1080"><path fill="#fff" d="M1870.7 0h-981.4c-27.1 0-49.3 22.2-49.3 49.3v981.4c0 27.1 22.2 49.3 49.3 49.3h981.4c27.1 0 49.3-22.2 49.3-49.3v-981.4c0-27.1-22.2-49.3-49.3-49.3zm20.3 1031.3c0 10.9-8.8 19.7-19.7 19.7h-981.6c-10.9 0-19.7-8.8-19.7-19.7v-981.6c0-10.9 8.8-19.7 19.7-19.7h981.5c10.9 0 19.7 8.8 19.7 19.7v981.6h.1zM1731.8 871.1h-700.2c-38.4 0-69.8-31.3-69.8-69.8v-522.6c0-38.4 31.3-69.8 69.8-69.8h700c38.4 0 69.8 31.3 69.8 69.8v522.5c.1 38.6-31.2 69.9-69.6 69.9zm-700.2-624.5c-17.6 0-32.1 14.4-32.1 32.1v522.5c0 17.6 14.4 32.1 32.1 32.1h700c17.6 0 32.1-14.4 32.1-32.1v-522.5c0-17.6-14.4-32.1-32.1-32.1h-700zM1393.4 630.9c-6.1 4.7-16 4.8-22.1.1l-401.5-306.6c-6.1-4.7-7.6-13.7-3.2-20.1l8.6-12.6c4.3-6.4 12.9-7.7 19-3l376.6 290.2c6.1 4.7 16 4.6 22.1-.1l370.5-291.5c6-4.8 14.7-3.5 19.2 2.7l8.8 12.3c4.5 6.3 3.2 15.2-2.9 20l-395.1 308.6z"/></svg>

<?xml version="1.0" encoding="utf-8"?>
<!-- Generator: Adobe Illustrator 18.1.1, SVG Export Plug-In . SVG Version: 6.00 Build 0)  -->
<svg version="1.1" id="Layer_1" xmlns="http://www.w3.org/2000/svg" xmlns:xlink="http://www.w3.org/1999/xlink" x="0px" y="0px"
	 viewBox="840 0 1080 1080" enable-background="new 840 0 1080 1080" xml:space="preserve">
<path fill="#FFFFFF" d="M1870.7,0H889.3C862.2,0,840,22.2,840,49.3v981.4c0,27.1,22.2,49.3,49.3,49.3h981.4
	c27.1,0,49.3-22.2,49.3-49.3V49.3C1920,22.2,1897.8,0,1870.7,0z M1891,1031.3c0,10.9-8.8,19.7-19.7,19.7H889.7
	c-10.9,0-19.7-8.8-19.7-19.7V49.7c0-10.9,8.8-19.7,19.7-19.7h981.5c10.9,0,19.7,8.8,19.7,19.7v981.6L1891,1031.3L1891,1031.3z"/>
<g>
	<path fill="#FFFFFF" d="M1731.8,871.1h-700.2c-38.4,0-69.8-31.3-69.8-69.8V278.7c0-38.4,31.3-69.8,69.8-69.8h700
		c38.4,0,69.8,31.3,69.8,69.8v522.5C1801.5,839.8,1770.2,871.1,1731.8,871.1z M1031.6,246.6c-17.6,0-32.1,14.4-32.1,32.1v522.5
		c0,17.6,14.4,32.1,32.1,32.1h700c17.6,0,32.1-14.4,32.1-32.1V278.7c0-17.6-14.4-32.1-32.1-32.1L1031.6,246.6L1031.6,246.6z"/>
	<g>
		<path fill="#FFFFFF" d="M1393.4,630.9c-6.1,4.7-16,4.8-22.1,0.1L969.8,324.4c-6.1-4.7-7.6-13.7-3.2-20.1l8.6-12.6
			c4.3-6.4,12.9-7.7,19-3l376.6,290.2c6.1,4.7,16,4.6,22.1-0.1l370.5-291.5c6-4.8,14.7-3.5,19.2,2.7l8.8,12.3
			c4.5,6.3,3.2,15.2-2.9,20L1393.4,630.9z"/>
	</g>
</g>
</svg>
